svg/fluentui-system-icons/ic_fluent_calendar_data_bar_24_regular.svg

<svg width="24" height="24" viewBox="0 0 24 24" fill="none" xmlns="http://www.w3.org/2000/svg">
<path d="M17.75 3C19.5449 3 21 4.45507 21 6.25V13.05C20.6306 13.125 20.2907 13.2815 20 13.4998C20 12.937 19.8139 12.4176 19.5 11.9998V8.5H4.5V17.75C4.5 18.7165 5.2835 19.5 6.25 19.5H11V21H6.25C4.45507 21 3 19.5449 3 17.75V6.25C3 4.45507 4.45507 3 6.25 3H17.75ZM17.75 4.5H6.25C5.2835 4.5 4.5 5.2835 4.5 6.25V7H19.5V6.25C19.5 5.2835 18.7165 4.5 17.75 4.5ZM17.5 12C16.6716 12 16 12.6716 16 13.5V21.5C16 22.3284 16.6716 23 17.5 23C18.3284 23 19 22.3284 19 21.5V13.5C19 12.6716 18.3284 12 17.5 12ZM13.5 16C12.6716 16 12 16.6716 12 17.5V21.5C12 22.3284 12.6716 23 13.5 23C14.3284 23 15 22.3284 15 21.5V17.5C15 16.6716 14.3284 16 13.5 16ZM20 15.5C20 14.6716 20.6716 14 21.5 14C22.3284 14 23 14.6716 23 15.5V21.5C23 22.3284 22.3284 23 21.5 23C20.6716 23 20 22.3284 20 21.5V15.5Z" fill="#212121"/>
</svg>

<svg xmlns="http://www.w3.org/2000/svg" width="24" height="24"><path d="M17.75 3A3.25 3.25 0 0 1 21 6.25v6.8a2.49 2.49 0 0 0-1 .45c0-.563-.186-1.082-.5-1.5V8.5h-15v9.25c0 .966.784 1.75 1.75 1.75H11V21H6.25A3.25 3.25 0 0 1 3 17.75V6.25A3.25 3.25 0 0 1 6.25 3h11.5Zm0 1.5H6.25A1.75 1.75 0 0 0 4.5 6.25V7h15v-.75a1.75 1.75 0 0 0-1.75-1.75ZM17.5 12a1.5 1.5 0 0 0-1.5 1.5v8a1.5 1.5 0 0 0 3 0v-8a1.5 1.5 0 0 0-1.5-1.5Zm-4 4a1.5 1.5 0 0 0-1.5 1.5v4a1.5 1.5 0 0 0 3 0v-4a1.5 1.5 0 0 0-1.5-1.5Zm6.5-.5a1.5 1.5 0 0 1 3 0v6a1.5 1.5 0 0 1-3 0v-6Z"/></svg>
